!! 00000] TT[WS
!!!OTL: Mantian xingxing yikeming
!!!ARE: Asia, China, Shanxi Hequ
!! Ethnic Group: Han
!! WII, 15 (2)
!!!SCT: J0417
!!!YEM: Copyright 1995, estate of Helmut Schaffrath.
**kern
*ICvox
*Ivox
*M2/4
*k[b-e-]
*B-:
{16ccc
16ccc
16ccc
16fff
8.ccc
16ccc
=1
16ccc
16bb-
16gg
16ff
4cc
=2
8gg
4ff
16ff
16bb-
=3
16gg
16ff
16gg
16dd
4cc}
=4
{16ccc
16ccc
16ccc
16fff
8.ccc
16ccc
=5
16ccc
16bb-
16gg
16ff
4cc
=6
8gg
4ff
16ff
16bb-
=7
8gg
4.ff}
==
!!!AGN: Shange, Shanqu. Qingge
!!!ONB: ESAC (Essen Associative Code) Database: CHINA
!!!AMT: simple duple
!!!AIN: vox
!!!EED: Helmut Schaffrath
!!!EEV: 1.0
*-
